src/rounded/icons/fi-rr-box-alt.svg

<svg id="Layer_1" height="512" viewBox="0 0 24 24" width="512" xmlns="http://www.w3.org/2000/svg" data-name="Layer 1"><path d="m19 0h-14a5.006 5.006 0 0 0 -5 5v14a5.006 5.006 0 0 0 5 5h14a5.006 5.006 0 0 0 5-5v-14a5.006 5.006 0 0 0 -5-5zm3 5h-7v-3h4a3 3 0 0 1 3 3zm-11-3h2v5a1 1 0 0 1 -2 0zm-6 0h4v3h-7a3 3 0 0 1 3-3zm14 20h-14a3 3 0 0 1 -3-3v-12h7a3 3 0 0 0 6 0h7v12a3 3 0 0 1 -3 3zm1-3a1 1 0 0 1 -1 1h-3a1 1 0 0 1 0-2h3a1 1 0 0 1 1 1z"/></svg>

<svg id="Layer_1" data-name="Layer 1" xmlns="http://www.w3.org/2000/svg" viewBox="0 0 24 24"><path d="M19,0H5A5.006,5.006,0,0,0,0,5V19a5.006,5.006,0,0,0,5,5H19a5.006,5.006,0,0,0,5-5V5A5.006,5.006,0,0,0,19,0Zm3,5H15V2h4A3,3,0,0,1,22,5ZM11,2h2V7a1,1,0,0,1-2,0ZM5,2H9V5H2A3,3,0,0,1,5,2ZM19,22H5a3,3,0,0,1-3-3V7H9a3,3,0,0,0,6,0h7V19A3,3,0,0,1,19,22Zm1-3a1,1,0,0,1-1,1H16a1,1,0,0,1,0-2h3A1,1,0,0,1,20,19Z"/></svg>
